X:1
T:Kawasaki, 11.8.11.8 D
T:Kawasaki, 11.8.11.8 D
T:Ira David Sankey, 1887
T:Public Domain Courtesy of the Cyber Hymnal™
C:Ira David Sankey, 1887
Z:Public Domain
Z:Courtesy of the Cyber Hymnal™
%%score ( 1 2 ) ( 3 4 )
L:1/8
Q:1/4=83
M:6/8
K:Ab
V:1 treble 
V:2 treble 
V:3 bass 
V:4 bass 
V:1
 [CE] | [Ec]>[EB][EA] [FB][FA][DF] | [CE][A,C][DF] [CE]2 E | [DF]>[EG][FA] [EA][EG][EA] | %4
 [GB]3- [GB]2 [Bd] | [Ac]>[EB][EA] [FB][FA][DF] | [CE][A,C][DF] [CE]2 E | %7
 [CA]<[CA][CA] [Ec]>[EA][DB] | [CA]3- [CA]2 [Ae] | [Ge]>[GB][GB] [GB][Ac][Bd] | %10
 [Bd]<[Ac][Ac] [Ac]2 [Bc] | [Ac]>[Ac][Ac] [A=d][Ac][AB] | e3- [Ge]2 [Bd] | %13
 [Ac]>[EB][EA] [FB][FA][DF] | [CE][A,C][DF] [CE]2 E | [CA]<[CA][CA] [Ec]>[EA][DB] | [CA]3- [CA]2 |] %17
V:2
 x | x6 | x5 E | x6 | x6 | x6 | x5 E | x6 | x6 | x6 | x6 | x6 | G2- A x3 | x6 | x5 E | x6 | x5 |] %17
V:3
 [A,,A,] | [A,,A,]>[B,,G,][C,A,] [D,A,][D,A,][D,A,] | [A,,A,][A,,E,][A,,A,] [A,,A,]2 [C,A,] | %3
 [D,A,]>[D,A,][D,A,] [C,A,][C,D][C,C] | [E,E]3- [E,E]2 [G,E] | [A,E]>[A,D][A,C] [D,D][D,D][D,A,] | %6
 [A,,A,][A,,E,][A,,A,] [A,,A,]2 [C,A,] | [F,A,]<[F,A,][F,A,] [E,A,]>[E,F,][E,G,] | %8
 [A,,A,]3- [A,,A,]2 [A,C] | [E,B,]>[E,E][E,E] [E,E][E,E][E,E] | [A,E]<[A,E][A,E] [A,E]2 [G,=E] | %11
 [F,F]>[F,F][F,F] [B,F][B,E][B,=D] | (E_DC [E,B,]2) [G,E] | [A,E]>[A,D][A,C] [D,D][D,D][D,A,] | %14
 [A,,A,][A,,E,][A,,A,] [A,,A,]2 [C,A,] | [F,A,]<[F,A,][F,A,] [E,A,]>[E,F,][E,G,] | %16
 [A,,A,]3- [A,,A,]2 |] %17
V:4
 x | x6 | x6 | x6 | x6 | x6 | x6 | x6 | x6 | x6 | x6 | x6 | E,3- x3 | x6 | x6 | x6 | x5 |] %17

